X: 155
P: Longways for as many as will
M: C|
L: 1/8
K: F
c2 |\
f2e2 f2c2 | f4 c3c | d2(BA) G2c2 | A2 F4 :: A2 | B3c d2(cB) | A3G F2A2 |

